public/images/placeofinterrests/nola.svg

<?xml version="1.0" encoding="UTF-8" standalone="no"?>
<svg width="95px" height="50px" viewBox="0 0 95 50" version="1.1" xmlns="http://www.w3.org/2000/svg" xmlns:xlink="http://www.w3.org/1999/xlink">
    <!-- Generator: Sketch 42 (36781) - http://www.bohemiancoding.com/sketch -->
    <title>nola</title>
    <desc>Created with Sketch.</desc>
    <defs></defs>
    <g id="Page-1" stroke="none" stroke-width="1" fill="none" fill-rule="evenodd">
        <g id="nola">
            <polygon id="Path-13" fill="#FFFFFF" fill-rule="nonzero" points="6 4 0 50 87 47 95 0"></polygon>
            <path d="M13.0190083,15.156 L12.9289926,15.228 L9.40400046,15.228 L9.40400046,36 L13.1720005,36 L13.1720005,21.06 L17.9120005,27.372 L17.9120005,27.492 L18.0020161,27.492 L18.0560005,27.564 L18.1520005,27.492 L19.6160005,27.492 L19.6160005,36 L23.3720005,36 L23.3720005,15.228 L19.6160005,15.228 L19.6160005,23.4 L13.1720005,15.3449922 L13.1720005,15.228 L13.0760005,15.228 L13.0190083,15.156 Z M37.9360003,18.996 C34.2774085,18.996 31.3120003,21.9614082 31.3120003,25.62 C31.3120003,29.278688 34.2774085,32.244 37.9360003,32.244 C41.5946878,32.244 44.5600003,29.278688 44.5600003,25.62 C44.5600003,21.9614082 41.5946878,18.996 37.9360003,18.996 Z M37.9360003,15.24 C43.6730237,15.24 48.3160003,19.8829756 48.3160003,25.62 C48.3160003,31.3570239 43.6730237,36 37.9360003,36 C32.1990725,36 27.5440003,31.357312 27.5440003,25.62 C27.5440003,19.8827842 32.1990725,15.24 37.9360003,15.24 Z M52.5640001,15.228 L52.5640001,36 L64.8400001,36 L64.8400001,32.244 L56.3320001,32.244 L56.3320001,15.228 L52.5640001,15.228 Z M75.5329921,21.1340156 L73.5139843,27.1939844 L77.5550077,27.1939844 L75.5329921,21.1340156 Z M73.7180155,15.2300156 L73.8620155,15.2780156 L77.1980155,15.2780156 L77.3420155,15.2300156 L77.3599999,15.2780156 L77.4079999,15.2780156 L77.4079999,15.4190078 L84.1609921,35.69 L84.2119999,35.69 L84.2119999,35.84 L84.2599999,35.987 L84.2119999,36.002 L84.2119999,36.05 L84.0649921,36.05 L83.9180155,36.098 L83.9030077,36.05 L80.6659843,36.05 L80.5219843,36.098 L80.5070077,36.05 L80.4559999,36.05 L80.4559999,35.897 L78.8060155,30.9500161 L72.2630077,30.9500161 L70.6159999,35.888 L70.6159999,36.05 L70.5649921,36.05 L70.5500155,36.098 L70.406016,36.05 L67.1599999,36.05 L67.142016,36.098 L66.998016,36.05 L66.8479999,36.05 L66.8479999,35.999 L66.7999999,35.984 L66.8479999,35.831 L66.8479999,35.69 L66.8959999,35.69 L73.6519999,15.428 L73.6519999,15.2780156 L73.7030077,15.2780156 L73.7180155,15.2300156 Z" id="NOLA" fill="#000000"></path>
        </g>
    </g>
</svg>

<svg width="95" height="50" viewBox="0 0 95 50" xmlns="http://www.w3.org/2000/svg"><title>nola</title><g fill="none" fill-rule="evenodd"><path fill="#FFF" fill-rule="nonzero" d="M6 4L0 50l87-3 8-47z"/><path d="M13.019 15.156l-.09.072H9.404V36h3.768V21.06l4.74 6.312v.12h.09l.054.072.096-.072h1.464V36h3.756V15.228h-3.756V23.4l-6.444-8.055v-.117h-.096l-.057-.072zm24.917 3.84a6.624 6.624 0 1 0 0 13.248 6.624 6.624 0 1 0 0-13.248zm0-3.756c5.737 0 10.38 4.643 10.38 10.38 0 5.737-4.643 10.38-10.38 10.38-5.737 0-10.392-4.643-10.392-10.38 0-5.737 4.655-10.38 10.392-10.38zm14.628-.012V36H64.84v-3.756h-8.508V15.228h-3.768zm22.969 5.906l-2.019 6.06h4.041l-2.022-6.06zm-1.815-5.904l.144.048h3.336l.144-.048.018.048h.048v.141l6.753 20.271h.051v.15l.048.147-.048.015v.048h-.147l-.147.048-.015-.048h-3.237l-.144.048-.015-.048h-.051v-.153l-1.65-4.947h-6.543l-1.647 4.938v.162h-.051l-.015.048-.144-.048H67.16l-.018.048-.144-.048h-.15v-.051l-.048-.015.048-.153v-.141h.048l6.756-20.262v-.15h.051l.015-.048z" fill="#000"/></g></svg>
